static/img/menus/ico-word.svg

<svg width="16" height="16" viewBox="0 0 16 16" fill="none" xmlns="http://www.w3.org/2000/svg">
<path d="M10.0468 3.55238C9.98535 3.54941 9.92393 3.55983 9.86685 3.58291C9.80976 3.606 9.75837 3.6412 9.71622 3.68609C9.63034 3.78655 9.58677 3.9164 9.59466 4.04832C9.58715 4.17946 9.63072 4.30842 9.71622 4.40813C9.75825 4.45333 9.80956 4.48889 9.86663 4.51239C9.9237 4.53589 9.98518 4.54677 10.0468 4.54427C10.1081 4.54594 10.1691 4.53418 10.2253 4.50982C10.2816 4.48547 10.3319 4.4491 10.3726 4.40327C10.4618 4.30676 10.5105 4.17971 10.5088 4.04832C10.5155 3.91614 10.4711 3.78643 10.3848 3.68609C10.3421 3.63981 10.2896 3.60375 10.2311 3.5806C10.1726 3.55745 10.1096 3.5478 10.0468 3.55238Z" fill="#2a5599"/>
<path d="M8.07778 3.55518H7.88086V4.54707H8.07778C8.14443 4.55076 8.21116 4.54128 8.27415 4.51917C8.33714 4.49707 8.39515 4.46276 8.44488 4.41822C8.49059 4.36969 8.52584 4.31227 8.54843 4.24953C8.57101 4.1868 8.58045 4.12009 8.57616 4.05355C8.58086 3.9885 8.57151 3.92319 8.54874 3.86206C8.52597 3.80094 8.49031 3.74543 8.44419 3.6993C8.39806 3.65318 8.34256 3.61752 8.28143 3.59475C8.2203 3.57198 8.15499 3.56263 8.08994 3.56733L8.07778 3.55518Z" fill="#2a5599"/>
<path d="M14 2.37115H12.94V1H4.75446L2 3.81767V14.6143H12.94V5.77472H14V2.37115ZM4.61345 1.83874V3.10778C4.61345 3.43112 4.24878 3.67423 3.94489 3.67423H2.82172L4.61345 1.83874ZM12.4538 14.128H2.48622V4.16045H3.94489C4.4919 4.16045 5.09968 3.72771 5.09968 3.10778V1.48622H12.4538V2.37115H6.22042V5.77472H12.4538V14.128ZM11.6224 4.40357C11.6609 4.44773 11.7089 4.48268 11.7627 4.50582C11.8166 4.52897 11.875 4.53972 11.9335 4.53728C12.0078 4.53786 12.0808 4.51855 12.1451 4.48136C12.2091 4.44314 12.26 4.38633 12.2909 4.31848H12.748C12.7057 4.49563 12.6014 4.65176 12.4538 4.75851C12.3026 4.86737 12.1198 4.92372 11.9335 4.91896C11.778 4.92179 11.6244 4.88319 11.4887 4.80713C11.362 4.73542 11.2583 4.62919 11.1896 4.50081C11.1151 4.3628 11.0774 4.20789 11.0802 4.05105C11.0777 3.89348 11.1154 3.73787 11.1896 3.59887C11.2602 3.46965 11.3654 3.36271 11.4935 3.29011C11.6306 3.21839 11.7838 3.18322 11.9384 3.18801C12.1247 3.18325 12.3074 3.2396 12.4587 3.34846C12.603 3.45629 12.7053 3.61102 12.748 3.78606H12.2909C12.26 3.71821 12.2091 3.66139 12.1451 3.62318C12.0808 3.58599 12.0078 3.56668 11.9335 3.56726C11.875 3.56482 11.8166 3.57557 11.7627 3.59872C11.7089 3.62186 11.6609 3.6568 11.6224 3.70097C11.539 3.8008 11.4964 3.92846 11.5032 4.05835C11.4995 4.1841 11.5419 4.30689 11.6224 4.40357ZM10.9198 4.04376C10.9222 4.20147 10.8819 4.3569 10.8031 4.49352C10.7274 4.62425 10.6184 4.7325 10.487 4.80713C10.3527 4.88236 10.2009 4.92093 10.047 4.91896C9.89229 4.9209 9.73975 4.88235 9.60454 4.80713C9.47527 4.73362 9.36788 4.62706 9.29336 4.49838C9.21694 4.36079 9.17683 4.20601 9.17683 4.04862C9.17683 3.89124 9.21694 3.73645 9.29336 3.59887C9.36935 3.46819 9.47943 3.36063 9.61183 3.28768C9.74602 3.21791 9.89582 3.1836 10.047 3.18801C10.2009 3.18604 10.3527 3.22461 10.487 3.29984C10.6188 3.37284 10.728 3.48044 10.8031 3.61102C10.8798 3.74408 10.9201 3.89503 10.9198 4.04862V4.04376ZM9.00648 4.04376C9.00873 4.19928 8.97017 4.35268 8.89465 4.48865C8.82213 4.61787 8.71302 4.72276 8.58104 4.79011C8.43562 4.86328 8.27459 4.89999 8.11183 4.89708H7.47245V3.1953H8.11183C8.2754 3.19209 8.43729 3.22881 8.58347 3.30227C8.71413 3.36948 8.82229 3.47342 8.89465 3.6013C8.97109 3.73955 9.00967 3.89554 9.00648 4.05348V4.04376Z" fill="#2a5599"/>
<path d="M3.22755 7.88969C3.22723 7.9265 3.23424 7.963 3.24817 7.99706C3.26211 8.03113 3.28269 8.06208 3.30871 8.08811C3.33474 8.11413 3.36569 8.13471 3.39976 8.14865C3.43382 8.16258 3.47032 8.16959 3.50713 8.16927H8.85559C8.89433 8.17289 8.9334 8.16839 8.9703 8.15605C9.0072 8.14371 9.04112 8.1238 9.06989 8.0976C9.09866 8.0714 9.12164 8.03948 9.13736 8.00389C9.15309 7.9683 9.16121 7.92982 9.16121 7.89091C9.16121 7.852 9.15309 7.81351 9.13736 7.77792C9.12164 7.74233 9.09866 7.71041 9.06989 7.68421C9.04112 7.65801 9.0072 7.6381 8.9703 7.62576C8.9334 7.61342 8.89433 7.60892 8.85559 7.61254H3.50713C3.47053 7.61222 3.43423 7.61915 3.40032 7.63294C3.36642 7.64672 3.33558 7.66709 3.30958 7.69285C3.28359 7.71862 3.26296 7.74928 3.24888 7.78307C3.2348 7.81685 3.22755 7.85309 3.22755 7.88969Z" fill="#2a5599"/>
<path d="M7.94727 9.7371C7.94727 9.81125 7.97672 9.88236 8.02915 9.93479C8.08158 9.98722 8.1527 10.0167 8.22684 10.0167H11.4602C11.5344 10.0167 11.6055 9.98722 11.6579 9.93479C11.7104 9.88236 11.7398 9.81125 11.7398 9.7371C11.7398 9.66295 11.7104 9.59184 11.6579 9.53941C11.6055 9.48697 11.5344 9.45752 11.4602 9.45752H8.22684C8.15289 9.45815 8.08215 9.48781 8.02985 9.54011C7.97756 9.5924 7.9479 9.66315 7.94727 9.7371Z" fill="#2a5599"/>
<path d="M3.50712 10.0167H7.21214C7.28629 10.0167 7.3574 9.98722 7.40983 9.93479C7.46226 9.88236 7.49172 9.81125 7.49172 9.7371C7.49172 9.66295 7.46226 9.59184 7.40983 9.53941C7.3574 9.48697 7.28629 9.45752 7.21214 9.45752H3.50712C3.43297 9.45752 3.36186 9.48697 3.30943 9.53941C3.25699 9.59184 3.22754 9.66295 3.22754 9.7371C3.22754 9.81125 3.25699 9.88236 3.30943 9.93479C3.36186 9.98722 3.43297 10.0167 3.50712 10.0167Z" fill="#2a5599"/>
<path d="M11.4597 11.3057H10.4143C10.3402 11.3057 10.2691 11.3351 10.2167 11.3876C10.1642 11.44 10.1348 11.5111 10.1348 11.5852C10.1348 11.6594 10.1642 11.7305 10.2167 11.7829C10.2691 11.8354 10.3402 11.8648 10.4143 11.8648H11.4597C11.5339 11.8648 11.605 11.8354 11.6574 11.7829C11.7098 11.7305 11.7393 11.6594 11.7393 11.5852C11.7393 11.5111 11.7098 11.44 11.6574 11.3876C11.605 11.3351 11.5339 11.3057 11.4597 11.3057Z" fill="#2a5599"/>
<path d="M9.08167 11.3057H3.50712C3.43297 11.3057 3.36186 11.3351 3.30943 11.3876C3.25699 11.44 3.22754 11.5111 3.22754 11.5852C3.22754 11.6594 3.25699 11.7305 3.30943 11.7829C3.36186 11.8354 3.43297 11.8648 3.50712 11.8648H9.08167C9.15582 11.8648 9.22693 11.8354 9.27936 11.7829C9.3318 11.7305 9.36125 11.6594 9.36125 11.5852C9.36125 11.5111 9.3318 11.44 9.27936 11.3876C9.22693 11.3351 9.15582 11.3057 9.08167 11.3057Z" fill="#2a5599"/>
</svg>

<svg xmlns="http://www.w3.org/2000/svg" width="16" height="16" fill="none" viewBox="0 0 16 16"><path fill="#2a5599" d="M10.047 3.552a.43.43 0 0 0-.33.134.5.5 0 0 0-.122.362.5.5 0 0 0 .121.36.43.43 0 0 0 .33.136.42.42 0 0 0 .327-.14.51.51 0 0 0 .136-.356.52.52 0 0 0-.124-.362.42.42 0 0 0-.338-.134M8.078 3.555H7.88v.992h.197a.5.5 0 0 0 .367-.129.49.49 0 0 0 .131-.364.455.455 0 0 0-.486-.487z"/><path fill="#2a5599" d="M14 2.371h-1.06V1H4.754L2 3.818v10.796h10.94v-8.84H14zM4.613 1.84v1.269c0 .323-.364.566-.668.566H2.822zm7.84 12.289H2.487V4.16h1.459c.547 0 1.155-.432 1.155-1.052V1.486h7.354v.885H6.22v3.404h6.234zm-.83-9.724a.4.4 0 0 0 .31.133.4.4 0 0 0 .212-.056.37.37 0 0 0 .146-.163h.457a.76.76 0 0 1-.294.44.85.85 0 0 1-.52.161.9.9 0 0 1-.445-.112.77.77 0 0 1-.3-.306.9.9 0 0 1-.109-.45.9.9 0 0 1 .11-.452.8.8 0 0 1 .303-.309.9.9 0 0 1 .445-.102.85.85 0 0 1 .52.16.78.78 0 0 1 .29.438h-.457a.37.37 0 0 0-.146-.163.4.4 0 0 0-.211-.056.4.4 0 0 0-.312.134.52.52 0 0 0-.119.357.52.52 0 0 0 .12.346m-.703-.36a.9.9 0 0 1-.117.45.85.85 0 0 1-.756.425.9.9 0 0 1-.442-.112.84.84 0 0 1-.312-.309.93.93 0 0 1 0-.9.83.83 0 0 1 .319-.31.9.9 0 0 1 .435-.1.9.9 0 0 1 .44.112c.132.073.241.18.316.311a.9.9 0 0 1 .117.438zm-1.914 0a.9.9 0 0 1-.111.445.75.75 0 0 1-.314.301c-.145.073-.306.11-.47.107h-.639V3.195h.64c.163-.003.325.034.471.107.131.067.24.171.312.3a.9.9 0 0 1 .111.451z"/><path fill="#2a5599" d="M3.228 7.89a.277.277 0 0 0 .28.28h5.348a.28.28 0 1 0 0-.557H3.507a.277.277 0 0 0-.28.277M7.947 9.737a.28.28 0 0 0 .28.28h3.233a.28.28 0 1 0 0-.56H8.227a.28.28 0 0 0-.28.28M3.507 10.017h3.705a.28.28 0 0 0 0-.56H3.507a.28.28 0 1 0 0 .56M11.46 11.306h-1.046a.28.28 0 1 0 0 .559h1.046a.28.28 0 1 0 0-.56M9.082 11.306H3.507a.28.28 0 1 0 0 .559h5.575a.28.28 0 1 0 0-.56"/></svg>
